!!!OTL: Das Voegelein.
!!!OTL-incipit: VOEGELEIN IM TANNENWALD PFEIFFET SO HELL
!!!ARE: Europa, Mitteleuropa, Deutschland, Schwaben
!!!SCT: Z1213
!!!YEM: Copyright 1995, estate of Helmut Schaffrath.
**kern	**text
*ICvox	*
*M3/8	*
*k[f#]	*
*G:	*
!LO:TX:a:t=Aus Schwaben.	!
{16g	Vö-
16a	-ge-
8b	-lein
8cc	im
=1	=1
8dd	Tan-
8ee	-nen-
8dd	-wald
=2	=2
8ee	pfei-
8dd	-fet
8cc	ſo
=3	=3
8b	hell,
16gg	ti-
16gg	-ri-
8gg}	-li!
=4	=4
{16g	Vö-
16a	-ge-
8b	-lein
8cc	im
=5	=5
8dd	Tan-
8ee	-nen-
8dd	-wald
=6	=6
8ee	pfeifet
8dd	.
8cc	ſo
=7	=7
4.b}	hell!
=8	=8
{8b	pfeift
8dd	den
8dd	Wald
=9	=9
8dd	aus
8cc	und
8cc	ein
=10	=10
8cc	wo
8b	wird
8b	mei
=11	=11
8b/	Schatʒe-
16a	.
16a	-le
8a}	ſeyn?
=12	=12
{16g	Vö-
16a	-ge-
8b	-lein
8cc	im
=13	=13
8dd	Tan-
8ee	-nen-
8dd	-wald
=14	=14
8ee	pfei-
8dd	-fet
8cc	ſo
=15	=15
4.b}	hell!
==	==
!!!AGN: Liebes - Lied
!!!ONB: ESAC (Essen Associative Code) Database: ZUCCAL
!!!AMT: simple triple
!!!AIN: vox
!!!EED: Helmut Schaffrath
!!!EEV: 1.0
!!!GTL: V. Lieder der Minne.
!!!URL-scan: https://www.digitale-sammlungen.de/de/view/bsb11160573?page=418
!!!ENC: Anna Maria Matuszewska
!!!EEV: 2025/02/06
*-	*-
